X:1
T:We Will Walk in the Light
T:We Will Walk in the Light
T:Rufus R. Morris
T:Rufus R. Morris, ca. 1907
T:Public Domain Courtesy of the Cyber Hymnal™
T:Public Domain Courtesy of the Cyber Hymnal™
C:Rufus R. Morris
Z:Public Domain
Z:Courtesy of the Cyber Hymnal™
%%score ( 1 2 ) ( 3 4 )
L:1/8
Q:1/4=90
M:4/4
K:F
V:1 treble 
V:2 treble 
V:3 bass 
V:4 bass 
V:1
 [CF][CG] | [FA][FA] [FG]>F [Fc]2 [Fc][Fc] | [FA]F [FA]>[Fc] [Af]2 [Bf]>[Bd] | %3
w: 1.~’Tis re-|li- gion that can give Sweet- est|plea- sures while we live, We will|
w: 2.~Af- ter|death its joys will be Last- ing|as e- ter- ni- ty, We will|
 [Ac]2 [FA][Fc] [Fd]2 [Fc]2 | [EG]6 [EA][EG] | [DF][DF] [DF]>[EG] [FA]2 [Fc][Fc] | %6
w: walk in the light of|God; ’Tis re-|li- gion can sup- ply Sol- id|
w: walk in the light of|God; Be the|liv- ing God my friend, Then my|
 [FA]F [FA]>[Fc] [Af]2 [Bf]>[Bd] | [Ac]2 [FA]F [FA]2 [EG]2 | F6 ||"^Refrain" [FA]F | [Fc]6 [FA]F | %11
w: com- fort when we die, We will|walk in the light of|God.|In the|light, in the|
w: bliss shall ne- ver end, We will|walk in the light of|God.|||
 [Af]6 [Bf]>[Bd] | [Ac]2 [FA][Fc] [Fd]2 [Fc]2 | [EG]6 [FA]F | [Fc]6 [Af][Af] | %15
w: light, We will|walk in the light of|God; In the|light, in the|
w: ||||
 (f4 !fermata!d2) [Bf]>[Bd] | [Ac]2 [FA]F [FA]2 G2 | !fermata!F6 x3 |] %18
w: light, * We will|walk in the light of|God.|
w: |||
V:2
 x2 | x7/2 F/ x4 | x F x6 | x8 | x8 | x8 | x F x6 | x3 F x4 | F6 || x F | x7 F | x8 | x8 | x7 F | %14
 x8 | G6 x2 | x3 F x (EE) x | (FF (3CDD C2) x3 |] %18
V:3
 [F,A,][F,B,] | [F,C][F,C] [F,B,]>[F,A,] [F,A,]2 [F,A,][F,A,] | %2
w: ~ ~|~ ~ ~ ~ ~ ~ ~|
 [F,C][F,A,] [F,C]>[F,A,] [F,C]2 [B,D]>[B,F] | [F,F]2 [F,C][A,C] B,2 [A,C]2 | C6 [C,C][C,B,] | %5
w: ~ ~ ~ ~ ~ ~ ~|~ ~ ~ ~ ~|~ ~ ~|
 [D,A,][D,A,] [D,A,]>[C,C] [F,C]2 [F,A,][F,A,] | [F,C][F,A,] [F,C]>[F,A,] [F,C]2 [B,D]>[B,F] | %7
w: ~ ~ ~ ~ ~ ~ ~|~ ~ ~ ~ ~ ~ ~|
 [F,F]2 [F,C][F,A,] [C,C]2 [C,B,]2 | [F,,F,A,]6 || [F,C][F,A,] | %10
w: ~ ~ ~ ~ ~|~|In the|
 [F,A,]2 (3[F,A,][F,A,][F,A,] [F,A,]2 [F,C][F,A,] | [F,C]2 (3[F,C][F,C][F,C] [F,C]2 [B,D]>[B,F] | %12
w: light, beau- ti- ful light, In the|light, beau- ti- ful light, ~ ~|
 [F,F]2 [F,C][A,C] B,2 [A,C]2 | C6 [F,C][F,A,] | [F,A,]2 (3[F,A,][F,A,][F,A,] [F,A,]2 [F,C][F,_E] | %15
w: ~ ~ ~ ~ ~|~ In the|light, beau- ti- ful light, In the|
 [B,D]2 (3[B,D][B,D][B,D] [B,F]2 [B,D]>[B,F] | [F,F]2 [F,C][F,A,] [C,C]2 B,B, | A, A,2 x6 |] %18
w: light, beau- ti- ful light, ~ ~|~ ~ ~ ~ In the|beau- ti-|
V:4
 x2 | x8 | x8 | x4 B,2 x2 | C6 x2 | x8 | x8 | x8 | x6 || x2 | x8 | x8 | x4 B,2 x2 | C6 x2 | x8 | %15
 x8 | x6 C,2 | [F,,F,]6 A,(3A,B,B, |] %18

